packages/web/src/assets/images/icons/rollback.svg

<svg fill="none" height="18" viewBox="0 0 18 18" width="18" xmlns="http://www.w3.org/2000/svg"><path clip-rule="evenodd" d="m5.74242 11.3478c.29289.2929.76777.2929 1.06066 0s.29289-.7678 0-1.0607l-3.26512-3.26508h7.73474c1.1272 0 2.2082.44776 3.0053 1.24479.797.79703 1.2447 1.87799 1.2447 3.00519s-.4477 2.2082-1.2447 3.0052c-.7971.7971-1.8781 1.2448-3.0053 1.2448h-3.24237c-.41422 0-.75.3358-.75.75s.33578.75.75.75h3.24237c1.525 0 2.9876-.6058 4.0659-1.6841 1.0783-1.0784 1.6842-2.5409 1.6842-4.0659 0-1.52498-.6059-2.98751-1.6842-4.06585-1.0783-1.07833-2.5409-1.68413-4.0659-1.68413h-7.73474l3.26512-3.26513c.29289-.29289.29289-.76776 0-1.06066-.29289-.292891-.76777-.292891-1.06066 0l-4.54462 4.54463c-.00302.003-.00601.00603-.00897.00909-.13094.13502-.211535.31913-.211535.52207 0 .10169.02024.19865.056905.28708.03577.08645.0884.16757.15789.23833m4.55033 4.55037-4.54495-4.54495z" fill="#ea4335" fill-rule="evenodd"/></svg>

<svg width="18" height="18" viewBox="0 0 18 18" fill="none" xmlns="http://www.w3.org/2000/svg">
    <path fill-rule="evenodd" clip-rule="evenodd"
          d="M5.74242 11.3478C6.03531 11.6407 6.51019 11.6407 6.80308 11.3478C7.09597 11.0549 7.09597 10.58 6.80308 10.2871L3.53796 7.02202H11.2727C12.3999 7.02202 13.4809 7.46978 14.278 8.26681C15.075 9.06384 15.5227 10.1448 15.5227 11.272C15.5227 12.3992 15.075 13.4802 14.278 14.2772C13.4809 15.0743 12.3999 15.522 11.2727 15.522H8.03033C7.61611 15.522 7.28033 15.8578 7.28033 16.272C7.28033 16.6862 7.61611 17.022 8.03033 17.022H11.2727C12.7977 17.022 14.2603 16.4162 15.3386 15.3379C16.4169 14.2595 17.0228 12.797 17.0228 11.272C17.0228 9.74702 16.4169 8.28449 15.3386 7.20615C14.2603 6.12782 12.7977 5.52202 11.2727 5.52202H3.53796L6.80308 2.25689C7.09597 1.964 7.09597 1.48913 6.80308 1.19623C6.51019 0.903339 6.03531 0.903339 5.74242 1.19623L1.1978 5.74086C1.19478 5.74386 1.19179 5.74689 1.18883 5.74995C1.05789 5.88497 0.977295 6.06908 0.977295 6.27202C0.977295 6.37371 0.997535 6.47067 1.0342 6.5591C1.06997 6.64555 1.1226 6.72667 1.19209 6.79743M5.74242 11.3478L1.19747 6.80285L5.74242 11.3478Z"
          fill="#EA4335"/>
</svg>
